X: 1
T: All In Good Time
M: 6/8
L: 1/8
R: jig
K: Bmin
e|:fdB BAF|A2B AFA|~B3 BAB|def eag|
fdB BAF|A2B AFA|BAF Aag|1fdc d2e:|2fdc dcB||
A2a agf|efg efg|~f3 gfg|ecA a2e|
f2a agf|efg efg|fAf gec|edc dcB|
A2a agf|efg efg|~f3 gfg|ecA BAG|
EF{G}F GFG|AFd AFA|Bed cag|fdc d2|
